svg/duplicati-dark.svg

<svg xmlns="http://www.w3.org/2000/svg" xml:space="preserve" viewBox="0 0 512 512"><path d="M448 24H192c-35.2 0-64 28.8-64 64v160H64c-35.2 0-64 28.8-64 64v112c0 35.2 28.8 64 64 64h160c23.6 0 44.2-12.9 55.3-32H368c35.2 0 64-28.8 64-64v-48h16c35.2 0 64-28.8 64-64V88c0-35.2-28.8-64-64-64M256 424c0 17.6-14.4 32-32 32H64c-17.6 0-32-14.4-32-32V312c0-17.6 14.4-32 32-32h64c0 35.2 28.8 64 64 64h64zm144-32c0 17.6-14.4 32-32 32h-80c0 1 0 1.9-.1 2.9 0-1 .1-1.9.1-2.9v-80h112zm-117.9 58.6c0-.1.1-.2.1-.2 0 .1 0 .1-.1.2m1.6-3.6c0-.1.1-.2.1-.3 0 .1-.1.2-.1.3m.7-1.9.3-.9zm1-3.2c.1-.4.3-.9.4-1.3-.1.4-.2.8-.4 1.3m.7-2.6c.1-.6.3-1.1.4-1.7-.1.6-.2 1.1-.4 1.7m.7-2.9c.1-.7.3-1.5.4-2.2-.1.7-.3 1.5-.4 2.2m.5-3.2.3-2.4zm.4-2.8c.1-.9.2-1.9.2-2.8-.1 1-.1 1.9-.2 2.8M480 280c0 17.6-14.4 32-32 32H192c-17.6 0-32-14.4-32-32V88c0-17.6 14.4-32 32-32h256c17.6 0 32 14.4 32 32z"/></svg>

<?xml version="1.0" encoding="utf-8"?>
<!-- Generator: Adobe Illustrator 28.2.0, SVG Export Plug-In . SVG Version: 6.00 Build 0)  -->
<svg version="1.1" id="Layer_1" xmlns="http://www.w3.org/2000/svg" xmlns:xlink="http://www.w3.org/1999/xlink" x="0px" y="0px"
	 viewBox="0 0 512 512" style="enable-background:new 0 0 512 512;" xml:space="preserve">
<path d="M448,24H192c-35.2,0-64,28.8-64,64v160H64c-35.2,0-64,28.8-64,64v112c0,35.2,28.8,64,64,64h160c23.6,0,44.2-12.9,55.3-32
	l0,0H368c35.2,0,64-28.8,64-64v-48h16c35.2,0,64-28.8,64-64V88C512,52.8,483.2,24,448,24z M256,424c0,17.6-14.4,32-32,32H64
	c-17.6,0-32-14.4-32-32V312c0-17.6,14.4-32,32-32h64c0,35.2,28.8,64,64,64h64V424z M400,392c0,17.6-14.4,32-32,32h-80
	c0,1,0,1.9-0.1,2.9c0-1,0.1-1.9,0.1-2.9v-80h112V392z M282.1,450.6c0-0.1,0.1-0.2,0.1-0.2C282.2,450.5,282.2,450.5,282.1,450.6z
	 M283.7,447c0-0.1,0.1-0.2,0.1-0.3C283.8,446.8,283.7,446.9,283.7,447z M284.4,445.1c0.1-0.3,0.2-0.6,0.3-0.9
	C284.6,444.5,284.5,444.8,284.4,445.1z M285.4,441.9c0.1-0.4,0.3-0.9,0.4-1.3C285.7,441,285.6,441.4,285.4,441.9z M286.1,439.3
	c0.1-0.6,0.3-1.1,0.4-1.7C286.4,438.2,286.3,438.7,286.1,439.3z M286.8,436.4c0.1-0.7,0.3-1.5,0.4-2.2
	C287.1,434.9,286.9,435.7,286.8,436.4z M287.3,433.2c0.1-0.8,0.2-1.6,0.3-2.4C287.5,431.6,287.4,432.4,287.3,433.2z M287.7,430.4
	c0.1-0.9,0.2-1.9,0.2-2.8C287.8,428.6,287.8,429.5,287.7,430.4z M480,280c0,17.6-14.4,32-32,32H192c-17.6,0-32-14.4-32-32V88
	c0-17.6,14.4-32,32-32h256c17.6,0,32,14.4,32,32V280z"/>
</svg>
